brandFactory_export/3.Masa/Internet_3Masa.svg

<?xml version="1.0" encoding="UTF-8"?>
<svg width="24px" height="24px" viewBox="0 0 24 24" version="1.1" xmlns="http://www.w3.org/2000/svg" xmlns:xlink="http://www.w3.org/1999/xlink">
    <title>3.Masa/Internet_3Masa</title>
    <g id="Symbols" stroke="none" stroke-width="1" fill="none" fill-rule="evenodd">
        <g id="3.Masa/Internet_3Masa" fill="#5CB615" fill-rule="nonzero">
            <path d="M17.8252101,17.1798319 L17.8252101,17.1831933 L22.8369748,17.1831933 C22.312605,18.6016807 21.5428571,19.7983193 20.5411765,20.7663866 C18.6420168,22.594958 15.9260504,23.5731092 12.4605042,23.6739496 L12.4605042,23.6739496 L12.4605042,23.6067227 C13.1630252,23.4722689 13.8386555,23.1563025 14.4840336,22.6689076 C15.297479,22.0504202 16.0268908,21.1731092 16.6420168,20.0672269 C17.1260504,19.2033613 17.5193277,18.2285714 17.8252101,17.1798319 L17.8252101,17.1798319 Z M5.49243697,17.1798319 C5.79831933,18.2319328 6.19495798,19.2033613 6.67563025,20.0672269 C7.29411765,21.1731092 8.02016807,22.0504202 8.83361345,22.6689076 C9.55630252,23.2168067 10.3226891,23.5462185 11.1159664,23.6470588 L11.1159664,23.6470588 L11.1159664,23.6672269 C7.71092437,23.5462185 5.03529412,22.5714286 3.15966387,20.7630252 C2.15462185,19.7983193 1.39159664,18.5983193 0.867226891,17.1798319 L0.867226891,17.1798319 Z M11.1159664,17.1798319 L11.1159664,22.2722689 C9.90588235,22.0436975 8.76302521,21.0420168 7.85210084,19.4016807 C7.46218487,18.6957983 7.14285714,17.9495798 6.90084034,17.1798319 L6.90084034,17.1798319 L11.1159664,17.1798319 Z M16.4235294,17.1831933 C16.1781513,17.9529412 15.8621849,18.6957983 15.4722689,19.405042 C14.6218487,20.9277311 13.5764706,21.8957983 12.4605042,22.2151261 L12.4605042,22.2151261 L12.4605042,17.1831933 Z M11.1159664,8.60504202 L11.1159664,15.7445378 L6.51764706,15.7445378 C6.24537815,14.4638655 6.11092437,13.1563025 6.11428571,11.8487395 C6.11428571,10.7596639 6.20504202,9.67731092 6.38991597,8.60504202 L6.38991597,8.60504202 L11.1159664,8.60504202 Z M5.02521008,8.60168067 C4.85378151,9.67394958 4.7697479,10.7596639 4.7697479,11.8453782 C4.76638655,13.1529412 4.8907563,14.4571429 5.14285714,15.7411765 L5.14285714,15.7411765 L0.433613445,15.7411765 C0.154621849,14.5647059 0.0168067227,13.2672269 0.0168067227,11.8487395 C0.0201680672,10.6823529 0.114285714,9.60336134 0.299159664,8.60168067 L0.299159664,8.60168067 Z M16.9310924,8.60504202 C17.1159664,9.67394958 17.210084,10.7596639 17.2067227,11.8453782 C17.210084,13.1563025 17.0756303,14.4605042 16.8033613,15.7411765 L16.8033613,15.7411765 L12.4605042,15.7411765 L12.4605042,8.60504202 Z M23.405042,8.60168067 C23.5932773,9.60336134 23.687395,10.6857143 23.687395,11.8487395 C23.687395,13.2672269 23.5495798,14.5647059 23.2705882,15.7411765 L23.2705882,15.7411765 L18.1815126,15.7411765 C18.4336134,14.4571429 18.5579832,13.1529412 18.5546218,11.8453782 C18.5546218,10.7596639 18.4672269,9.67394958 18.2957983,8.60168067 L18.2957983,8.60168067 Z M11.1159664,1.41848739 L11.1159664,7.2605042 L6.68235294,7.2605042 C6.96806723,6.16806723 7.36134454,5.16302521 7.8487395,4.28907563 C8.76302521,2.6487395 9.90588235,1.65042017 11.1159664,1.41848739 L11.1159664,1.41848739 Z M12.4605042,1.4789916 C13.5764706,1.79495798 14.6218487,2.76638655 15.4722689,4.28907563 C15.9596639,5.16302521 16.3529412,6.16806723 16.6386555,7.2605042 L16.6386555,7.2605042 L12.4605042,7.2605042 Z M11.1193277,0.0235294118 L11.1193277,0.0470588235 C10.3260504,0.151260504 9.55966387,0.477310924 8.83697479,1.02521008 C8.02352941,1.64369748 7.29747899,2.5210084 6.6789916,3.62689076 C6.08403361,4.69243697 5.62016807,5.92268908 5.29747899,7.2605042 L5.29747899,7.2605042 L0.618487395,7.2605042 C1.13613445,5.51260504 1.98319328,4.06386555 3.15966387,2.93109244 C5.03529412,1.12268908 7.71092437,0.144537815 11.1193277,0.0235294118 L11.1193277,0.0235294118 Z M12.4571429,0.0201680672 C15.9226891,0.124369748 18.6420168,1.09915966 20.5411765,2.93109244 C21.7142857,4.06722689 22.5647059,5.51260504 23.0823529,7.2605042 L23.0823529,7.2605042 L18.0235294,7.2605042 C17.7008403,5.92268908 17.2369748,4.69243697 16.6420168,3.62689076 C16.0268908,2.51764706 15.3008403,1.64369748 14.4840336,1.02521008 C13.8420168,0.534453782 13.1630252,0.221848739 12.4605042,0.087394958 L12.4605042,0.087394958 L12.4571429,0.087394958 Z" id="Internet_3Masa"></path>
        </g>
    </g>
</svg>

<svg width="24" height="24" viewBox="0 0 24 24" xmlns="http://www.w3.org/2000/svg"><path d="M17.825 17.18v.003h5.012c-.524 1.419-1.294 2.615-2.296 3.583-1.899 1.829-4.615 2.807-8.08 2.908v-.067c.702-.135 1.378-.45 2.023-.938.813-.619 1.543-1.496 2.158-2.602a13.85 13.85 0 001.183-2.887zm-12.333 0a13.958 13.958 0 001.184 2.887c.618 1.106 1.344 1.983 2.158 2.602.722.548 1.489.877 2.282.978v.02c-3.405-.12-6.08-1.096-7.956-2.904-1.005-.965-1.768-2.165-2.293-3.583zm5.624 0v5.092c-1.21-.228-2.353-1.23-3.264-2.87-.39-.706-.71-1.452-.951-2.222h4.215zm5.308.003c-.246.77-.562 1.513-.952 2.222-.85 1.523-1.896 2.49-3.011 2.81v-5.032zm-5.308-8.578v7.14H6.518a18.516 18.516 0 01-.404-3.896c0-1.09.091-2.172.276-3.244h4.726zm-6.09-.003a20.555 20.555 0 00-.256 3.243 19.95 19.95 0 00.373 3.896H.433C.156 14.565.018 13.267.018 11.85c.003-1.167.097-2.246.282-3.247zm11.905.003a18.69 18.69 0 01.276 3.24 18.493 18.493 0 01-.404 3.896h-4.342V8.605zm6.474-.003c.188 1.001.282 2.084.282 3.247 0 1.418-.137 2.716-.416 3.892h-5.09a20.558 20.558 0 00.114-7.14zM11.116 1.418v5.843H6.682A12.733 12.733 0 017.85 4.289c.914-1.64 2.057-2.639 3.267-2.87zm1.345.061c1.115.316 2.16 1.287 3.011 2.81.488.874.88 1.88 1.167 2.972H12.46zM11.119.024v.023c-.793.104-1.56.43-2.282.978-.813.619-1.54 1.496-2.158 2.602C6.084 4.692 5.62 5.923 5.297 7.26H.618c.518-1.748 1.365-3.197 2.542-4.33C5.035 1.123 7.71.145 11.12.024zM12.457.02c3.466.104 6.185 1.08 8.084 2.911 1.173 1.136 2.024 2.582 2.541 4.33h-5.058c-.323-1.338-.787-2.569-1.382-3.634-.615-1.11-1.341-1.983-2.158-2.602-.642-.49-1.321-.803-2.023-.938h-.004z" fill="#5CB615" fill-rule="nonzero"/></svg>
